X:1
T:大提琴练习曲_Book1_P18_No.26
T:大提琴练习曲_Book1_P18_No.26
L:1/8
Q:1/4=80
M:4/4
K:D
V:1 bass nm="大提琴" snm="Vc."
V:1
!mf!!<(! D,>.D, E,>.E, F,>.F, G,>.G,!<)! | A,>.A, B,>.B, A,>.A, D>.D | %2
!>(! C>.C B,>.B, A,>.A, G,>.G,!>)! | F,>.F, G,>.G, F,>.F, E,>.E, | %4
!<(! D,>.D, E,>.E, F,>.F, G,>.G,!<)! | A,>.A, B,>.B, C>.C D>.D | %6
!>(! C>.C B,>.B, A,>.A, G,>.G,!>)! | F,>.F, G,>.G, F,>.F, E,>.E, | D,>.D, E,>.E, F,>.F, D,>.D, | %9
 E,>.E, F,>.F, G,>.G, E,>.E, | F,>.F, G,>.G, A,>.A, F,>.F, | G,>.G, A,>.A, B,>.B, G,>.G, | %12
 A,>.A, B,>.B, C>.C B,>.B, | A,>.A, G,>.G, F,>.F, E,>.E, | D,>.D, C,>.C, B,,>.B,, A,,>.A,, | %15
 B,,>.B,, A,,>.A,, G,,>.G,, E,,>.E,, | D,,>.D,, F,,>.F,, A,,>.A,, D,>.D, | %17
 D,,>.D,, G,,>.G,, B,,>.B,, D,>.D, |"_cresc." A,,>.A,, C,>.C, E,>.E, A,>.A, | %19
 D,>.D, F,>.F, A,>.A, D>.D |!f! D,>.D, =F,>F, _B,>.B, D>.D | D,>.D, F,>.F, A,>.A, D>.D | %22
 D,>.D, =F,>F, _B,>.B, D>.D | D,>.D, F,>.F, A,>.A, D>.D |!<(! D,>.D, G,>G, _B,>.B, D>.D!<)! | %25
!>(! C>.C A,>A, E,>.E, C,>.C,!>)! |!<(! =C,>.C, E,>E, A,>.A, =C>.C!<)! | %27
!>(! B,>.B, G,>G, D,>.D, B,,>.B,,!>)! |!<(! _B,,>.B,, D,>D, G,>.G, _B,>.B,!<)! | %29
!>(! A,>.A, =F,>F, D,>.D, A,,>.A,,!>)! |!<(! G,,>.G,, _B,,>B,, E,>.E, G,>.G,!<)! | %31
!>(! A,,>.A,, C,>C, E,>.D, A,>.A,!>)! |!mf! D,>.D, E,>E, F,>.F, G,>.G, | %33
!<(! A,>.A, B,>B, A,>.A, D>.D!<)! | C>.C B,>B, A,>.A, G,>.G, |!>(! F,>.F, G,>G, F,>.F, E,>.E,!>)! | %36
!<(! D,>.D, E,>.E, F,>.F, G,>.G,!<)! | A,>.A, B,>.B, A,>.A, D>.D | C>.C B,>.B, A,>.A, G,>.G, | %39
!>(! F,>.F, G,>.G, F,>.F, E,>.E,!>)! | D,>.D, D>.D D,>.D, =C>.C | D,>.D, B,>.B, D,>.D, ^C>.C | %42
 D,>.D, D>.D D,>.D, =C>.C | D,>.D, B,>.B, D,>.D, ^C>.C | D,>.D, D>.D B,>.B, A,>.A, | %45
 F,>.F, A,>.A, F,>.F, E,>.E, | D,>.D, B,,>.B,, A,,>.A,, G,,>.G,, | %47
 F,,>.F,, G,,>.G,, F,,>.F,, E,,>.E,, |!<(! D,,>.D,, F,,>.F,, A,,>.A,, D,>.D,!<)! | %49
!>(! G,>.G, D,>.D, _B,,>.B,, G,,>.G,,!>)! |!<(! D,,>.D,, F,,>.F,, A,,>.A,, D,>.D,!<)! | %51
!>(! G,>.G, D,>.D, _B,,>.B,, G,,>.G,,!>)! |!<(! D,,>.D,, F,,>.F,, A,,>.A,, D,>.D,!<)! | %53
 F,>.F, D,>.D, F,>.F, A,>.A, | D2 z2!f! [D,,A,,F,]2 z2 | D,,8 |] %56

